!!!SOCIAL_FUNCTION:	songs connected with legends
!!!PDT:	1929
!!!OTL: No_40_The_Man_Who_Has_No_Joy.krn
!!!REG: Southwest
!!!LANG: Non-Tone
!!!LING_GROUP: Uto-Aztecan
**kern
*staff1
=1-
*clefF4
*k[b-e-]
*M2/4
8.B-\L
16B-\Jk
8.B-\L
16A\Jk
=2
4B-\
8.B-\L
16A\Jk
=3!|:
8B-\L
8B-\J
8.B-\L
16A\Jk
=4
8B-\L
8B-\J
8.B-\L
16A\Jk
=5
2B-\
=6
12B-\L
12A\
12A\J
4A\
=7||
*M3/4
8.G\L
16D\Jk
2D\
=8||
*M2/4
8.G\L
16G\Jk
8.B-\L
16B-\Jk
=9
16A\LL
16G\J
8G\J
8.G\L
16G\Jk
=10
8.G\L
16A\Jk
16A\LK
8.G\J
=11
8.G\L
16G\Jk
8G\
8r
==:|!
*-
